X:1
T:He’ll Drive All the Shadows Away
T:He’ll Drive All the Shadows Away
T:Adam Geibel
T:C. C. Uhland, 1920
T:Public Domain Courtesy of the Cyber Hymnal™
T:Public Domain Courtesy of the Cyber Hymnal™
C:Adam Geibel
Z:Public Domain
Z:Courtesy of the Cyber Hymnal™
%%score ( 1 2 ) ( 3 4 )
L:1/8
Q:1/4=93
M:6/8
K:Ab
V:1 treble 
V:2 treble 
V:3 bass 
V:4 bass 
V:1
 E | c>=Bc [Fd][FA][_F_B] | [Ec] [CE]4 [CEA] | B>=AB x3 | [Ge][A=d][EB_d] x3 | [EAc]4 z E | %6
w: 1.~The|cares of the day oft per-|plex us, The|path- way we|tread oft seems|bare; The|
w: 2.~That|life which the sun ne- ver|bright- ened, With|mis- ery and|pain ev- ery-|where, May|
w: 3.~There’s|no one can help us like|Je- sus, No|bur- den’s too|heav- y for|Him; He|
 c>=Bc [Fd][FA][_F_B] | [Ec] [CE]4 [Ec] | B>BB cBF | B3- ([DG][DF][DEB]) z E | %10
w: sun seems to shine but for|o- thers, There|seems to be no one to|care; But * * some-|
w: reach out in faith and may|find Him Who|waits ev- ery sor- row to|share. He * * holds|
w: wants ev- ery life filled with|sun- shine; With|light that shall ne- ver grow|dim. And * * dai-|
 B>BB [DGB][EGc][FGd] | [FAd] [EAc]4 c | c>cc BAB | ([=Ec]3 !fermata![_Ed]2) E | %14
w: * one is watch- ing our|foot- steps, He’s|guid- ing us o’er the dark|way; * His|
w: * out His hands pierced and|wound- ed, He|knows of the bur- den each|day; * He’ll|
w: * ly He’s watch- ing our|foot- steps, And|lead- ing us all the lone|way; * We’ll|
 c>cc [CEA][EAc][_Gce] | [_Gce] [FAd]4 [_FA] | [Ec][Fd][Ec] !fermata!c<!fermata!F[Ec] | %17
w: love, like the glor- i- ous|sun- shine, Will|drive all the sha- dows a-|
w: take all the thorns from our|path- way, And|drive all the sha- dows a-|
w: trust in His dear lov- ing|kind- ness, To|drive all the sha- dows a-|
 A3- [CA]2 |] %18
w: way. *|
w: way. *|
w: way. *|
V:2
 E | E3 x3 | x6 | [DG]3 x3 | x6 | x6 | E3 x3 | x6 | E3 =D3 | D x7 | [DG]3 x3 | x6 | F3 F3 | x6 | %14
 [EA]3 x3 | x6 | x3 =D2 x | CED x2 |] %18
V:3
 z | [A,,A,]3 [A,,A,]3 | A,, (C,E,A,E,)A,, | [E,,E,]3 [E,B,][F,B,]G, | (A,G,F,E,D,)B,, | %5
 [A,,A,]3 [A,,A,]3 | A,, (C,E,A,E,)A,, | [B,,G,]3 [B,,G,]3 | (G,-B,A, [E,G,]) z2 | %9
 z E,E, z E,E, x2 | A,, (C,E, A,2) z | [F,A,]3 [D,F,]3 | [C,G,]3- !fermata![C,G,]2 z | %13
 [A,,A,]3 [A,,A,]3 | D, (F,A, D2) [D,A,] | [E,A,]3 !fermata![B,,A,]2 [E,G,] | (A,G,F, [A,,E,]2) x | %17
 x5 |] %18
V:4
 x | x6 | x6 | x6 | x6 | x6 | x6 | x6 | E,3- x3 | E,,3 E,,3 x2 | x6 | x6 | x6 | x6 | x6 | x6 | %16
 A,,3- x3 | x5 |] %18

